X:56
T:"Through All The World Below" to Captain Kidd
B:William Walker's Southern Harmony of 1835
B:reprinted for W.P.A. by Hastings House, New York 1939
S:Bronson, Bertrand H. California Folklore Quarterly, 1942 p. 58
N:same melody as 12WbSo but with slurs and grace notes added
Q:1/4=120
M:4/4
L:1/8
K:C
z4 A4 |c2 A2 B2 A2 |G4 E2 E2 |A4 G2 A2 |B4 (c3 d) |e2 B2 c2 A2 |G4 {A}B2 c2 |
A8 |z4 A4 |c2 A2 c2 d2 |e6 (dc) |d2 d2 e2 c2 |B4 (c3 d) |e2 B2 c2 A2 |
G4 B2 c2 |A4 G2 A2 |B4 (c3 d) |e2 B2 c2 A2 |G4 {A}B2 c2 |A8 :|
